X: 27439
T: Molloy's Favourite
R: reel
M: 4/4
K: Dmajor
|:d2 Ad fdAF|GFEF GABc|(3ded Ad fdAF|GBAG FD2c:|
fggf gbag|fggf gfeg|fggf gbag|(3efg eg fddc|
dfaf gbag|dfaf gfec|dcBA BAGF|GFEF GABc||

